X:1
T:Title
%%score 1 ( 2 3 )
L:1/8
Q:1/4=112
M:4/4
K:G
V:1 treble nm="Grand Piano, Soprano"
V:2 bass nm="Choir Pad, Canterbury (Henchman)"
V:3 bass 
V:1
 [B,G]4 [DB]2 [DA]2 | [DB]2 [EG]2 [DA]2 [DB]2 | [Ec]4 [Ec]4 | [DB]2 [DA]2 [B,G]2 [DB]2 | %4
w: By~Anonymous,~1742 * *||||
 [DA]4 [DA]4 | [Ec]2 [DB]2 [DA]2 [B,G]2 | [EA]2 [DA]2 [DB]4 | [DB]4 [DA]2 [DB]2 | %8
w: ||||
 [Ec]2 [DA]2 [B,G]4- | [B,G]4 z4 |] %10
w: ||
V:2
 G,4 G,2 [D,F,]2 | G,2 [E,B,]2 [F,A,]2 G,2 | [C,G,]4 [E,G,]4 | G,2 [D,F,]2 [E,G,]2 G,-[C,G,] | %4
 [D,F,]4 [D,F,]4 | E,F,G,-[C,G,] [D,F,]2 [E,G,]2 | [C,G,]2 [D,F,]2 G,4 | [G,,G,]4 [D,F,]2 G,2 | %8
 [C,G,]2 [D,F,]2 [G,,G,]4- | [G,,G,]4 z4 |] %10
V:3
 x8 | x8 | x8 | z4 z2 .B,,2 | x8 | A,,2 .B,,2 z4 | x8 | x8 | x8 | x8 |] %10

